!!!COM: Fux, Johann Joseph
!!!OMD: Gradus ad Parnassum Exercise
!!!YEC: CC0 1.0 Universal (Public Domain). Mark Gotham and FourScoreAndMore.org waive all rights to this document.
**kern	**kern	**kern	**kern
*part4	*part3	*part2	*part1
*staff4	*staff3	*staff2	*staff1
*I"4	*I"3	*I"2	*I"1
*I'Pno	*I'Pno	*I'Pno	*I'Pno
!!LO:LB:g=z
*clefF4	*clefGv2	*clefG2	*clefG2
*k[]	*k[]	*k[]	*k[]
!!LO:TX:omd:t=
*M4/4	*M4/4	*M4/4	*M4/4
=251	=251	=251	=251
!	!	!	!LO:TX:a:t=Fig. 193; Species&colon; 4; Modal final&colon; d; Cantus firmus&colon; 2
1D	1A	1d	2r
.	.	.	[2a/
=252	=252	=252	=252
1D	1A	1f	2a/]
.	.	.	[2dd\
=253	=253	=253	=253
1AA	1A	1e	2dd\]
.	.	.	[2cc\
=254	=254	=254	=254
1BB	1D	1d	2cc\]
.	.	.	[2b\
=255	=255	=255	=255
1GG	1d	1g	2b\]
.	.	.	[2dd\
=256	=256	=256	=256
1D	1d	1f	2dd\]
.	.	.	[2a/
=257	=257	=257	=257
1F	1c	1a	2a/]
.	.	.	[2ff\
=258	=258	=258	=258
1C	1c	1g	2ff\]
.	.	.	[2ee\
=259	=259	=259	=259
1D	1A	1f	2ee\]
.	.	.	[2dd\
=260	=260	=260	=260
1AA	1A	1e	2dd\]
.	.	.	2cc#X\
=261	=261	=261	=261
1D	1A	1d	1dd
==	==	==	==
*-	*-	*-	*-
!!!software: music21 v.9.7.1
!!!software: music21 v.9.7.1
!!!software: MuseScore 3.4.2
!!!RDF**kern: > = above
!!!RDF**kern: < = below
